assets/img/icons/arrow-left.svg

<?xml version="1.0" encoding="UTF-8" standalone="no"?>
<svg width="16px" height="22px" viewBox="0 0 16 22" version="1.1" xmlns="http://www.w3.org/2000/svg" xmlns:xlink="http://www.w3.org/1999/xlink" xmlns:sketch="http://www.bohemiancoding.com/sketch/ns">
    <!-- Generator: Sketch 3.3.2 (12043) - http://www.bohemiancoding.com/sketch -->
    <title>Artboard 1</title>
    <desc>Created with Sketch.</desc>
    <defs></defs>
    <path d="M12.9375455,0.1875 C6.3125215,3.906263 0.5937515,9.750034 0.3750015,10.000035 C-0.1250005,10.562537 -0.1250005,11.43754 0.3750015,12.000042 C0.5937515,12.250043 6.3125215,18.093813 12.9375455,21.812576 C13.3750465,22.062577 13.9062985,22.062577 14.3438005,21.812576 C14.7813015,21.593826 15.0625525,21.125074 15.0938025,20.625072 C15.0938025,20.562572 15.3750535,15.875056 15.3750535,11.000038 C15.3750535,6.125021 15.0938025,1.437505 15.0938025,1.375005 C15.0625525,0.875003 14.7813015,0.437501 14.3438005,0.1875 C13.9062985,-0.0625 13.3750465,-0.0625 12.9375455,0.1875 L12.9375455,0.1875 Z" id="Shape" sketch:type="MSShapeGroup"></path>
</svg>

<svg width="16" height="22" viewBox="0 0 16 22" xmlns="http://www.w3.org/2000/svg">
    <title>Arrow Left</title>
    <path d="M12.938.188c-6.625 3.719-12.344 9.563-12.563 9.813-.5.563-.5 1.438 0 2 .219.25 5.938 6.094 12.563 9.813.438.25.969.25 1.406 0 .438-.219.719-.688.75-1.188 0-.063.281-4.75.281-9.625s-.281-9.563-.281-9.625c-.031-.5-.313-.938-.75-1.188-.438-.25-.969-.25-1.406 0z" />
</svg>
